decimal-increase.svg

<svg fill="currentColor" viewBox="0 0 24 24"><path d="m22 17-3 3v-2h-6v-2h6v-2zM9 5a3 3 0 0 1 3 3v3a3 3 0 0 1-3 3 3 3 0 0 1-3-3V8a3 3 0 0 1 3-3m0 2a1 1 0 0 0-1 1v3a1 1 0 0 0 1 1 1 1 0 0 0 1-1V8a1 1 0 0 0-1-1m7-2a3 3 0 0 1 3 3v3a3 3 0 0 1-3 3 3 3 0 0 1-3-3V8a3 3 0 0 1 3-3m0 2a1 1 0 0 0-1 1v3a1 1 0 0 0 1 1 1 1 0 0 0 1-1V8a1 1 0 0 0-1-1M4 12a1 1 0 0 1 1 1 1 1 0 0 1-1 1 1 1 0 0 1-1-1 1 1 0 0 1 1-1"/></svg>

<svg  viewBox="0 0 24 24" fill="currentColor"><path  d="M22,17L19,20V18H13V16H19V14L22,17M9,5A3,3 0 0,1 12,8V11A3,3 0 0,1 9,14A3,3 0 0,1 6,11V8A3,3 0 0,1 9,5M9,7A1,1 0 0,0 8,8V11A1,1 0 0,0 9,12A1,1 0 0,0 10,11V8A1,1 0 0,0 9,7M16,5A3,3 0 0,1 19,8V11A3,3 0 0,1 16,14A3,3 0 0,1 13,11V8A3,3 0 0,1 16,5M16,7A1,1 0 0,0 15,8V11A1,1 0 0,0 16,12A1,1 0 0,0 17,11V8A1,1 0 0,0 16,7M4,12A1,1 0 0,1 5,13A1,1 0 0,1 4,14A1,1 0 0,1 3,13A1,1 0 0,1 4,12Z"/></svg>
